public/assets/footer/discord-dark.svg

<svg fill="none" height="36" viewBox="0 0 37 36" width="37" xmlns="http://www.w3.org/2000/svg"><path d="m27.9157 10.3656c-1.6275-.74673-3.3728-1.29687-5.1975-1.61196-.0333-.00608-.0665.00912-.0836.03951-.2244.39918-.4731.91994-.6472 1.32925-1.9626-.2938-3.9152-.2938-5.8376 0-.1742-.41841-.4318-.93007-.6573-1.32925-.0171-.02938-.0503-.04458-.0835-.03951-1.8238.31408-3.5691.86422-5.1976 1.61196-.0141.0061-.0262.0162-.0342.0294-3.31038 4.9452-4.21723 9.7689-3.77236 14.5327.00201.0233.0151.0456.03321.0598 2.1841 1.6038 4.29975 2.5775 6.37615 3.2228.0332.0102.0685-.002.0896-.0293.4912-.6707.929-1.3779 1.3044-2.1216.0222-.0435.001-.0952-.0443-.1124-.6944-.2635-1.3557-.5846-1.9918-.9494-.0504-.0293-.0544-.1013-.0081-.1357.1339-.1003.2678-.2047.3956-.3101.0231-.0192.0553-.0233.0825-.0111 4.179 1.9078 8.7032 1.9078 12.8328 0 .0272-.0132.0594-.0091.0836.0101.1278.1054.2617.2108.3966.3111.0462.0344.0432.1064-.0071.1357-.6361.3719-1.2974.6859-1.9929.9484-.0452.0172-.0654.0699-.0432.1134.3834.7427.8213 1.4498 1.3034 2.1206.0201.0283.0563.0405.0896.0303 2.0864-.6453 4.2021-1.619 6.3862-3.2228.0191-.0142.0312-.0355.0332-.0588.5324-5.5075-.8918-10.2916-3.7754-14.5327-.007-.0142-.0191-.0243-.0332-.0304zm-13.0834 11.6614c-1.2582 0-2.2949-1.1549-2.2949-2.5734 0-1.4184 1.0166-2.5734 2.2949-2.5734 1.2883 0 2.3149 1.1651 2.2948 2.5734 0 1.4185-1.0166 2.5734-2.2948 2.5734zm8.4847 0c-1.2581 0-2.2948-1.1549-2.2948-2.5734 0-1.4184 1.0166-2.5734 2.2948-2.5734 1.2883 0 2.315 1.1651 2.2948 2.5734 0 1.4185-1.0065 2.5734-2.2948 2.5734z" stroke="#fff" stroke-width="1.286"/></svg>

<svg xmlns="http://www.w3.org/2000/svg" width="37" height="36" fill="none" viewBox="0 0 37 36"><path stroke="#fff" stroke-width="1.286" d="M27.9157 10.3656C26.2882 9.61887 24.5429 9.06873 22.7182 8.75364C22.6849 8.74756 22.6517 8.76276 22.6346 8.79315C22.4102 9.19233 22.1615 9.71309 21.9874 10.1224C20.0248 9.8286 18.0722 9.8286 16.1498 10.1224C15.9756 9.70399 15.718 9.19233 15.4925 8.79315C15.4754 8.76377 15.4422 8.74857 15.409 8.75364C13.5852 9.06772 11.8399 9.61786 10.2114 10.3656C10.1973 10.3717 10.1852 10.3818 10.1772 10.395C6.86682 15.3402 5.95997 20.1639 6.40484 24.9277C6.40685 24.951 6.41994 24.9733 6.43805 24.9875C8.62215 26.5913 10.7378 27.565 12.8142 28.2103C12.8474 28.2205 12.8827 28.2083 12.9038 28.181C13.395 27.5103 13.8328 26.8031 14.2082 26.0594C14.2304 26.0159 14.2092 25.9642 14.1639 25.947C13.4695 25.6835 12.8082 25.3624 12.1721 24.9976C12.1217 24.9683 12.1177 24.8963 12.164 24.8619C12.2979 24.7616 12.4318 24.6572 12.5596 24.5518C12.5827 24.5326 12.6149 24.5285 12.6421 24.5407C16.8211 26.4485 21.3453 26.4485 25.4749 24.5407C25.5021 24.5275 25.5343 24.5316 25.5585 24.5508C25.6863 24.6562 25.8202 24.7616 25.9551 24.8619C26.0013 24.8963 25.9983 24.9683 25.948 24.9976C25.3119 25.3695 24.6506 25.6835 23.9551 25.946C23.9099 25.9632 23.8897 26.0159 23.9119 26.0594C24.2953 26.8021 24.7332 27.5092 25.2153 28.18C25.2354 28.2083 25.2716 28.2205 25.3049 28.2103C27.3913 27.565 29.507 26.5913 31.6911 24.9875C31.7102 24.9733 31.7223 24.952 31.7243 24.9287C32.2567 19.4212 30.8325 14.6371 27.9489 10.396C27.9419 10.3818 27.9298 10.3717 27.9157 10.3656ZM14.8323 22.027C13.5741 22.027 12.5374 20.8721 12.5374 19.4536C12.5374 18.0352 13.554 16.8802 14.8323 16.8802C16.1206 16.8802 17.1472 18.0453 17.1271 19.4536C17.1271 20.8721 16.1105 22.027 14.8323 22.027ZM23.317 22.027C22.0589 22.027 21.0222 20.8721 21.0222 19.4536C21.0222 18.0352 22.0388 16.8802 23.317 16.8802C24.6053 16.8802 25.632 18.0453 25.6118 19.4536C25.6118 20.8721 24.6053 22.027 23.317 22.027Z"/></svg>
